X:1
T: Grey Daylight
T: Stirling Castle
C:Prof. Bannatyne
R:Strathspey
Q: 128
K:D
M:4/4
L:1/16
|:A,2|D4 F3A D3A F3A|A,4 C3A, E3A, C3E|D4 F3D A3D F3A|((3B2c2d2) ((3e2f2g2) ((3f2e2d2) ((3c2B2A2) |
D4 F3A D3A F3A|A,4 C3A, E3A, C3E|D4 F3D A3D F3A|((3B2c2d2) ((3e2f2g2) fd3 FA3|
d4 f3d g3d f3d|B3B e3d ((3e2e2A2) a4|d4 f3d g3d f3d|((3B2c2d2) ((3e2f2g2) fd3 FA3|
d4 f3d g3d f3d|g3f e3d ((3e2f2d2) ((3c2B2A2) |((3f2g2a2) ((3g2f2e2) ((3d2e2f2) ((3e2d2c2) |((3B2c2B2) ((3d2c2B2) ((3A2B2A2) ((3G2F2E2) :|
